; コメント
;;; コメント ;;;

;;; 制御コマンド

?control
?  CONTROL
?control()
?control  ( 1, 2 )
?control(1, foo ,"bar\\\"", 'baz\\\'')

;;; 組み込み制御コマンド

?tempo(120)
?octave_mode(0)
; ?start  ; 解析に影響するのでテストは別
; ?end    ; 解析に影響するのでテストは別

;;; 定義

$define
$  DEFINE
$define()
$define  ( 1, 2 )
$define(1, foo ,"bar\\\"", 'baz\\\'')

;;; 対象（ソングトラック）

=1
==== 2
==== 3 ====

; 後ろにMMLを置ける
=1 _
==== 2 _
==== 3 ==== _

;;; 対象（リズムトラック）

=r
==== R
==== r ====

; 後ろにMMLを置ける
=r _
==== R _
==== r ==== _

;;; 対象（リズムトラック・番号付き）

=r1
==== R2
==== r3 ====

; 後ろにMMLを置ける
=r1 _
==== R2 _
==== r3 ==== _

;;; 対象（マクロ・番号）

=*1
==== *2
==== *3 ====

; 後ろにMMLを置ける
=*1 _
==== *2 _
==== *3 ==== _

;;; 対象（マクロ・名前）

=*(foo)
==== *(bar)
==== *(baz) ====

; 後ろにMMLを置ける
=*(foo) _
==== *(bar) _
==== *(baz) ==== _

;;; スラー・タイ

&

;;; マクロ展開

*1
*(foo) *(  bar  )

;;; 簡易相対オクターブ

< >
<<< >>> ; 複数

;;; 簡易音色

@1
@(foo) @(  bar  )

;;; 任意コマンド

@command
@  COMMAND
@command()
@command  ( 1, 2 )
@command(1, foo ,"bar\\\"", 'baz\\\'')

;;; 組み込み任意コマンド

@accent(3)
@accent(3, -2)

@transpose(-4)
@transpose(0)

;;; 音階

; すべての音階名
cdefgab

; 半音記号
c-
c+
c#

; 半音記号（複数）
c---
c+++
c###

; アクセント
c!
c~

; 長さ
c4
c4..
c%42

; 付点のみ
c..

; 半音記号 + アクセント
c-! c+! c#!
c-~ c+~ c#~

; 半音記号 + 長さ
c-4 c+4 c#4
c-4.. c+4.. c#4..
c-%42 c+%42 c#%42

; 半音記号 + 付点のみ
c-.. c+.. c#..

; 半音記号（複数） + アクセント
c---! c+++! c###!
c---~ c+++~ c###~

; 半音記号（複数） + 長さ
c---4 c+++4 c###4
c---4.. c+++4.. c###4..
c---%42 c+++%42 c###%42

; 半音記号（複数） + 付点のみ
c---.. c+++.. c###..

; アクセント + 長さ
c!4 c~4
c!4.. c~4..
c!%42 c~%42

; アクセント + 付点のみ
c!.. c~..

; 半音記号 + アクセント + 長さ
c-!4 c-!4.. c-!%42
c+!4 c+!4.. c+!%42
c#!4 c#!4.. c#!%42
c-~4 c-~4.. c-~%42
c+~4 c+~4.. c+~%42
c#~4 c#~4.. c#~%42

; 半音記号 + アクセント + 付点のみ
c-!.. c+!.. c#!..
c-~.. c+~.. c#~..

; 半音記号（複数） + アクセント + 長さ
c---!4 c---!4.. c---!%42
c+++!4 c+++!4.. c+++!%42
c###!4 c###!4.. c###!%42
c---~4 c---~4.. c---~%42
c+++~4 c+++~4.. c+++~%42
c###~4 c###~4.. c###~%42

; 半音記号（複数） + アクセント + 付点のみ
c---!.. c+++!.. c###!..
c---~.. c+++~.. c###~..

; 省略時長さ
l4    c c..
l4..  c c..
l%42  c

; 音階の直接指定
n32
n32!
n32~
n32 4
n32 4..
n32%42
n32..
n32!4
n32~4..
n32!%42

; オクターブ
o4
o-4

; 相対オクターブ
o:-4
o:+4
o:0

; 音長比
q100 q80 q60 q40 q20 q0

; 休符
r r4 r4.. r%42

; テンポ
t120
t112.5

; 音量
v15
v-15

; 相対音量
v:-4
v:+4
v:0

; 楽器の音量
v{abcdefghijklmopqrstuvwxyz}15
v{a n32}-15

; 楽器の相対音量
v{abcdefghijklmopqrstuvwxyz}:-5
v{a n32}:+5
v{a n32}:0

; ループ
[ __ ]
[2 __ ]
[ __ ]2
[0 __ ]
[ __ ]0

; ループ中断
[ __/__ ]

; 簡易休符
_ ____

; リズム楽器名
{abcdefghijklmopqrstuvwxyz}
{a n32}

{a}4 {a}4.. {a}%42 {a}..
{n32}4 {n32}4.. {n32}%42 {n32}..

{a! b~ n32! n64~}

; 範囲
|& cdef|
|! cdef|
|~ cdef|
